X: 131701
T: Mamma's Polka
T: Polca mo Mh\'aithr\'in
S: B.Breathnach:"Ceol Rince na hEireann" IV/88 
Z: B.Black
L: 1/8
M: 2/4
Q: 280
R: polka
K: A
ce e/e/e|fe e/e/e|eA cB|cA A/A/A|
ce e/e/e|fe e/e/e|eA cB|cA A2 :|
ea ea|gf f/f/f|ge e/e/e|fe e/e/e|
ea ea|gf f/f/f|ge fg|a2 a2 :|
